X:1
T:Witness, ye heavens - Farnaby
T:James Gibb editions
T:#
%%score { 1 | 2 } { 3 | 4 } { 5 | 6 } { 7 | 8 }
L:1/8
Q:1/4=96
M:4/4
K:F
V:1 treble nm="Soprano I" snm="S"
V:2 treble 
V:3 treble nm="Alto I" snm="A"
V:4 treble 
V:5 treble-8 nm="Tenor I" snm="T"
V:6 treble-8 
V:7 bass nm="Bass I" snm="B"
V:8 bass 
V:1
"^Witness ye heav'ns" z8 |"^Witness, Ye Heavens" z8 | z8 |"^Giles Farnaby\n(c. 1566-1640)" z8 | %4
w: ||||
 z8 |[M:4/4] z4 d4 | d6 G2 | d2 _e2 d4- | d2 c4 B2 | A2 (G2 A4) | =B4 z4 | z8 | z4 z2 d2 | f6 c2 | %14
w: |Wit-|ness ye|heav'ns, I vow|* to love|the fair\- *|est,||to|love, but|
[M:4/4] (_e3 d/c/ B2) d2 | c2 B2 B2 A2 | B4 z4 | z8 | z8 | z8 | z4 z2 d2 | d3 c Bcde | f2 d2 c4 | %23
w: how? * * * For|vir- tue, not for|lust,||||for|vir- tue, Why? Be- cause she|is the rar-|
 d4 z4 | z4 z2 d2 | c2 _e2 d3 (c/B/) | A2 G2 A2 A2 | =B8 | z8 | z8 | z4 z2 d2 | d2 d2 g3 f | %32
w: est.|Come|life, come death, in *|her I on- ly|trust;|||hap|death, hap life, I|
 e3 d c3 B | A2 f2 e2 d2 | ^c2 d2 e4 | d4 z4 | z4 z2 d2 | =B3 B c4- | c2 _B2 A2 G2 | d2 d2 d4 | %40
w: force not which be-|tide, I force not|which be- tide|me,|by|her I live,|* from death I|can- not hide|
 d4 z4 | z8 | z4 z2 d2 | d2 d2 g3 f | e3 d c3 B | A2 f2 e2 d2 | ^c2 d2 e4 | d4 z4 | z4 z2 d2 | %49
w: me;||hap|death, hap life, I|force not which be-|tide, I force not|which be- tide|me,|by|
 =B3 B c4- |[Q:1/4=94] c2[Q:1/4=92] B2[Q:1/4=90] A2[Q:1/4=88] G2 | %51
w: her I live,|* from death I|
[Q:1/4=86] d2[Q:1/4=84] d2[Q:1/4=81] d4 |[Q:1/4=80] !fermata!d8 |] %53
w: can- not hide|me.|
V:2
 z8 | z8 | d4 d4- | d2 (GABc) d2- | dd c4 B2 |[M:4/4] A2 G2 A4 | B4 B4 | B2 c4 B2- | B2 A3 G G2 | %9
w: ||Wit- ness|* ye * * * hea\-|* vens, I vow|to love the|fair- est,|wit- ness ye|* heav'ns, I vow|
 ^F2 G2 G2 F2 | G4 z4 | z2 A2 c3 (B/A/ | GABc) d4 | z8 |[M:4/4] z2 g3 (f/_e/d=e | f2) (d2 c4) | %16
w: to love the fair-|est,|to love, but *|* * * * how?||To love, * * *|* but *|
 d4 z2 g2 | f2 e3 e d2 | ^c2 d2 d2 c2 | d4 z4 | z4 z2 B2 | B3 A GABG | A2 B4 A2 | B4 z4 | %24
w: how? To|love, but how? For|vir- tue, not for|lust,|for|vir- tue, why? Be- cause she|is the rar-|est.|
 z2 G2 ^F2 B2 | A2 G2 F3 G | A2 (Bc d4) | d8 | z2 G2 G2 G2 | c3 B A3 G | ^F2 G4 F2 | G8 | %32
w: Come life, come|death, in her I|on- ly * *|trust;|hap death, hap|life, I force not|which be- tide|me,|
 z4 z2 c2 | c2 c2 g3 f | e2 d2 d2 ^c2 | d2 d2 z4 | z2 A2 ^F3 F | G4 z2 g2 | =f2 d3 c B2 | A4 =B4 | %40
w: hap|death, hap life, I|force not which be-|tide me,|by her I|live, from|death I can- not|hide me;|
 z2 G2 G2 G2 | c3 B A3 G | ^F2 G4 F2 | G8 | z4 z2 c2 | c2 c2 g3 f | e2 d2 d2 ^c2 | d2 d2 z4 | %48
w: hap death, hap|life, I force not|which be- tide|me,|hap|death, hap life, I|force not which be-|tide me,|
 z2 A2 ^F3 F | G4 z2 g2 | =f2 d3 c B2 | A2 B2 A4 | !fermata!=B8 |] %53
w: by her I|live, from|death I can- not|hide me, hide|me.|
V:3
 z8 | G4 G4- | G2 F2 B2 A2 | B4 G3 A | B2 (AG A3 G |[M:4/4] ^F2 G4) F2 | G4 G4 | G4 F4 | %8
w: |Wit- ness|* ye hea- vens,|I vow to|love the * * *|* * fair-|est, the|fair- est,|
 z2 F2 D2 (CD) | D4 D4 | z8 | z8 | z2 G2 B3 (A/G/) | FG A2 c3 (B/A/) |[M:4/4] G2 G2 (d3 A/G/ | %15
w: to love the *|fair- est,|||to love, but *|how? For vir- tue, not *|* for lust, * *|
 F4) z4 | z2 F4 D2 | A4 A4 | z4 A4 | ^F6 G2 | A2 A2 G2 G2 | G3 A B4 | z2 F2 F2 F2 | F4 E2 G2 | %24
w: |to love,|but how?|For|vir- tue|not for lust, for|vir- tue why?|Be- cause she|is the rar-|
 ^F2 B2 A2 G2 | F2 c2 A4 | D2 G4 ^F2 | (G8- | D4) z2 C2 | C2 C2 F3 G | A2 B2 A4 | z4 z2 G2 | %32
w: est. Come life, come|death, in her|I on- ly|trust;|* hap|death, hap life, I|force not which,|hap|
 G2 G2 A4- | A2 A2 B2 B2 | A2 A2 A4 | A4 z2 G2 | E3 E D4 | z4 G4 | A2 G2 ^F2 G2- | G2 ^F2 (G4- | %40
w: death, hap life,|* I force not|which be- tide|me, by|her I live,|from|death I can- not|* hide me;|
 D4) z2 C2 | C2 C2 F3 G | A2 B2 A4 | z4 z2 G2 | G2 G2 A4- | A2 A2 B2 B2 | A2 A2 A4 | A4 z2 G2 | %48
w: * hap|death, hap life, I|force not which,|hap|death, hap life,|* I force not|which be- tide|me, by|
 E3 E D4 | z4 G4 | A2 G2 ^F2 G2- | G2 (^FE F4) | !fermata!G8 |] %53
w: her I live,|from|death I can- not|* hide * *|me.|
V:4
 z8 | z8 | z8 | z8 | z8 |[M:4/4] z8 | z8 | z8 | z8 | z8 | z2 D2 F4- | F2 C4 _E2- | E2 C4 C2- | %13
w: ||||||||||To love,|* but how?|* To love,|
 C2 F2 C4- |[M:4/4] C2 G2 _E2 F2 | C2 (DE) F4- | F2 D2 D4 | ^C6 D2 | E2 D2 E4 | D2 A2 A2 D2 | %20
w: * but how?|* For vir- tue,|not for * lust,|* for vir-|tue, not|for lust, for|vir- tue, not for|
 D2 D2 D2 D2 | D2 B,2 B,4 | z2 D2 F3 F | D2 D2 z4 | z8 | z2 C2 F2 D2 | D4 A,2 D2 | z2 D2 D2 D2 | %28
w: lust, for vir- tue,|why? Be- cause|she is the|rar- est.||in her I|on- ly trust;|hap death, hap|
 G3 F E3 D | E4 D4- | D4 D4 | =B,4 z2 D2 | E6 C2 | C4 z4 | z8 | z2 D2 =B,3 B, | C4 z2 D2 | %37
w: life, I force not|which be\-|* tide|me, which|be- tide|me,||by her I|live, from|
 D2 D2 C4 | A,2 D2 D4 | z2 D2 D2 D2 | G3 F E3 D | E4 D4- | D4 D4 | =B,4 z2 D2 | E6 C2 | C4 z4 | %46
w: death I can-|not hide me;|hap death, hap|life, I force not|which be\-|* tide|me, which|be- tide|me,|
 z8 | z2 D2 =B,3 B, | C4 z2 D2 | D4 C4 | A,2 D2 D4 | D8- | !fermata!D8 |] %53
w: |by her I|live, from|death I|can- not hide|me.||
V:5
 d4 d4- | d2 G2 d2 _e2 | (Bcd=e f2) f2 | d2 _e2 (dcBA | G4) ^F2 d2- | %5
w: Wit- ness|* ye heav'ns, I|vow * * * * to|love the fair\- * * *|* est, wit\-|
[M:4/4][K:treble-8] dc B2 A2 d2 | d4 d3 c | BA G2 z2 f2- | f2 c2 G4 | d2 (Bc d2) A2 | d8 | %11
w: * ness ye heav'ns, I|vow to love|the fair- est, I|* vow to|love the * * fair-|est,|
 c2 f4 (_ef | g2 _e2) d4- | d2 c4 f2 |[M:4/4][K:treble-8] (_ed/c/ B2) g2 f2 | f4 z4 | z8 | z8 | %18
w: to love, but *|* * how?|* For vir-|tue, * * * not for|lust,|||
 z8 | d2 (c4 B2) | A4 !courtesy!_B4 | _B2 Bc d2 B2 | (c2 B2 c4) | B2 d2 c2 _e2 | d6 G2 | %25
w: |for vir\- *|tue, why?|Be- cause she is the|rar\- * *|est. Come life, come|death, in|
 c4 z2 A2- | A2 d4 A2 | d8 | =B4 c2 e2 | a4 z2 A2- | A2 G2 A4 | G2 =B2 B2 B2 | c6 c2 | %33
w: her I|* on- ly|trust;|hap death, hap|life, hap|* death, hap|life, hap death, hap|life, I|
 f2 c2 z2 g2- | g2 f2 e4 | ^f4 g4 | g2 e2 a4 | z2 g2 e3 e | f2 (Bc) d2 d2 | A2 d2 =B2 B2 | %40
w: force not which|* be- tide|me, by|her I live,|by her I|live, from * death I|can- not hide me;|
 =B4 c2 e2 | a4 z2 A2- | A2 G2 A4 | G2 =B2 B2 B2 | c6 c2 | f2 c2 z2 g2- | g2 f2 e4 | ^f4 g4 | %48
w: hap death, hap|life, hap|* death, hap|life, hap death, hap|life, I|force not which|* be- tide|me, by|
 g2 e2 a4 | z2 g2 e3 e | f2 (Bc) d2 d2 | A2 G2 d4 | !fermata!=B8 |] %53
w: her I live,|by her I|live, from * death I|can- not hide|me.|
V:6
 z8 | z8 | z8 | z8 | z8 |[M:4/4][K:treble-8] z8 | z4 B3 A | GF _E2 (F3 G | ABcA Bc d2) | %9
w: ||||||Wit- ness|ye heav'ns, I vow *||
 A2 B2 A2 A2 | G4 A4 | A6 c2 | B4 z4 | z2 F2 A2 c2- |[M:4/4][K:treble-8] c (B/A/ G2) G2 B2 | %15
w: to love the fair-|est, to|love, but|how?|To love, but|* how? * * For vir-|
 A2 B2 c4 | B2 B2 A2 G2 | A3 G E2 (FG) | A2 G2 A3 c | B2 (A3 G) G2- | G2 ^F2 G4 | G2 d4 G2 | %22
w: tue, not for|lust, for vir- tue,|not for lust, for *|vir- tue, not for|lust, for * vir\-|* tue, why?|Be- cause she|
 c2 F2 F4 | F2 B2 G2 c2 | A2 G2 A2 d2 | z2 G2 d4 | d2 B2 A4 | G4 z2 G2 | G2 G2 c3 B | A3 G F3 E | %30
w: is the rar-|est. Come life come|death, life, come death,|in her|I on- ly|trust; hap|death, hap life, I|force not which be-|
 D2 D2 z4 | z8 | z4 A2 A2 | A2 F2 B4 | ^c2 A2 A2 A2 | A4 G4 | z2 c2 A3 A | G4 G2 c2- | %38
w: tide me,||hap death,|hap life, I|force not which be-|tide me,|by her I|live, from death|
 c2 G2 A2 (Bc) | d2 A2 z2 G2 | G2 G2 c3 B | A3 G F3 E | D2 D2 z4 | z8 | z4 A2 A2 | A2 F2 B4 | %46
w: * I can- not *|hide me; hap|death, hap life, I|force not which be-|tide me,||hap death,|hap life, I|
 ^c2 A2 A2 A2 | A4 G4 | z2 c2 A3 A | G4 G2 c2- | c2 G2 A2 (Bc) | d2 (Bc d2) A2 | !fermata!G8 |] %53
w: force not which be-|tide me,|by her I|live, from death|* I can- not *|hide me, * * hide|me.|
V:7
 z4 G,4 | G,6 C,2 | G,2 B,3 A, F,2 | G,6 F,2 | _E,4 D,4- |[M:4/4] D,8 | G,8 | z8 | z8 | z8 | %10
w: Wit-|ness ye|hea- vens, I vow|to love|the fair\-||est,||||
 z4 z2 D,2 | F,4 F,2 G,2- | G,2 G,2 F,4 | F,8 |[M:4/4] z4 z2 F,2 | F,8- | F,4 D,4 | z2 A,4 A,2 | %18
w: to|love, but how?|* For vir-|tue,|not|for|* lust,|not for|
 E,2 z4 z2 | z8 | z2 D,2 D,4 | D,8 | z2 F,2 C,4 | z4 z2 G,2 | D,4 D,2 G,2 | z4 A,4 | %26
w: lust,||be- cause|she|is the,|is|the rar- est,|her|
 A,2 z2 z2 D,2 | D,4 D,4 | z8 | z8 | z2 D,2 D,2 D,2 | G,4 G,4- | G,2 E,2 E,4 | F,2 A,2 G,2 D,2 | %34
w: I on-|ly trust;|||hap death, hap|life, I|* force not|which be- tide me,|
 E,2 (F,G,) A,2 A,,2 | D,8 | z8 | z2 G,2 C,2 C,2 | F,2 z2 (D,3 E,) | ^F,G,A,D, D,4 | D,4 z4 | z8 | %42
w: not which * be- tide|me,||by her I|live, from *|death I can- not hide|me;||
 z2 D,2 D,2 D,2 | G,4 G,4- | G,2 E,2 E,4 | F,2 A,2 G,2 D,2 | E,2 (F,G,) A,2 A,,2 | D,8 | z8 | %49
w: hap death, hap|life, I|* force not|which be- tide me,|not which * be- tide|me,||
 z2 G,2 C,2 C,2 | F,2 z2 D,3 E, | ^F,2 G,2 A,2 D,2 | !fermata!D,8 |] %53
w: by her I|live, from death|I can- not hide|me.|
V:8
 z8 | z8 | z8 | z8 | z8 |[M:4/4] z8 | G,,4 G,4- | G,2 C,2 D,2 D,2 | F,2 F,2 G,2 G,,2 | D,8 | %10
w: ||||||Wit- ness|* ye heav'ns, I|vow to love the|fair-|
 G,,4 z4 | z4 z2 C,2 | _E,2 E,2 B,,4- | B,,2 F,,3 (G,,A,,B,,) |[M:4/4] (C,D, _E,4) B,,2 | %15
w: est,|to|love, but how?|* For vir\- * *|* * * tue,|
 F,4 F,,4 | B,,3 C, D,2 B,,2 | A,,4 A,,4 | A,,2 B,,2 A,,4 | D,4 D,4 | D,4 G,,4 | G,,4 G,,4 | %22
w: not for|lust, for vir- tue,|not for|lust, not for|lust, for|vir- tue,|why? Be-|
 F,,4 F,,4 | B,,4 C,4 | D,2 G,,2 D,2 D,E, | F,2 C,2 D,3 E, | (^F,2 G,2) D,4 | G,,8 | z8 | z8 | z8 | %31
w: cause she|is the|rar- est. Come life, come|death, in her I|on\- * ly|trust;||||
 z2 G,,2 G,,2 G,,2 | C,3 B,, A,,3 G,, | F,,4 G,,4 | A,,4 A,,4 | z4 G,,4 | C,2 C,2 D,4 | z4 z2 C,2 | %38
w: hap death, hap|life, I force not|which be-|tide me,|by|her I live,|from|
 F,,2 G,,2 D,4 | D,4 G,,4 | G,,4 z4 | z8 | z8 | z2 G,,2 G,,2 G,,2 | C,3 B,, A,,3 G,, | F,,4 G,,4 | %46
w: death I can-|not hide|me;|||hap death, hap|life, I force not|which be-|
 A,,4 A,,4 | z4 G,,4 | C,2 C,2 D,4 | z4 z2 C,2 | F,,2 G,,2 D,2 D,2 | D,8 | !fermata!G,,8 |] %53
w: tide me,|in|her I live,|from|death I can- not|hide|me.|

